static/assets/img/icons/theme/devices/mic.svg

<svg height="24" viewBox="0 0 24 24" width="24" xmlns="http://www.w3.org/2000/svg"><g fill="none" fill-rule="evenodd"><path d="m0 0h24v24h-24z" opacity="0"/><g fill="#000"><path d="m12.9975507 17.929461c.0016238.0233021.0024493.0468242.0024493.070539v3c0 .5522847-.4477153 1-1 1s-1-.4477153-1-1v-3c0-.0237148.0008255-.0472369.0024493-.070539-3.39348814-.4841753-6.0024493-3.4021404-6.0024493-6.929461h2c0 2.7614237 2.23857625 5 5 5 2.7614237 0 5-2.2385763 5-5h2c0 3.5273206-2.6089612 6.4452857-6.0024493 6.929461z" fill-rule="nonzero"/><rect height="12" opacity=".3" rx="3" width="6" x="9" y="2"/></g></g></svg>

<svg width="24px" height="24px" viewBox="0 0 24 24" version="1.1" xmlns="http://www.w3.org/2000/svg" xmlns:xlink="http://www.w3.org/1999/xlink">
    <title>Icon For Mic</title>
    <g stroke="none" stroke-width="1" fill="none" fill-rule="evenodd">
        <rect opacity="0" x="0" y="0" width="24" height="24"></rect>
        <path d="M12.9975507,17.929461 C12.9991745,17.9527631 13,17.9762852 13,18 L13,21 C13,21.5522847 12.5522847,22 12,22 C11.4477153,22 11,21.5522847 11,21 L11,18 C11,17.9762852 11.0008255,17.9527631 11.0024493,17.929461 C7.60896116,17.4452857 5,14.5273206 5,11 L7,11 C7,13.7614237 9.23857625,16 12,16 C14.7614237,16 17,13.7614237 17,11 L19,11 C19,14.5273206 16.3910388,17.4452857 12.9975507,17.929461 Z" fill="#000000" fill-rule="nonzero"></path>
        <rect fill="#000000" opacity="0.3" transform="translate(12.000000, 8.000000) rotate(-360.000000) translate(-12.000000, -8.000000) " x="9" y="2" width="6" height="12" rx="3"></rect>
    </g>
</svg>
